svg/black/coqui.svg

<svg height="32" viewBox="0 0 32 32" width="32" xmlns="http://www.w3.org/2000/svg"><path d="m16 32c-8.836556 0-16-7.163444-16-16s7.163444-16 16-16 16 7.163444 16 16-7.163444 16-16 16zm9.8202355-17.2849738c.3765715-.0178455.7504901-.0911257 1.1797645-.146252-.0873093-.6191564-.1324325-1.2173111-.2602223-1.7971457-.5327617-2.4167292-1.7959509-4.37391444-3.7805191-5.84894033-1.6604392-1.23413609-3.5375171-1.86342542-5.6027623-1.91171728-.8630493-.02019479-1.7269751-.00695308-2.5904745-.00370199-.8466345.00315618-1.6799807.11547334-2.496841.33799563-4.06286482 1.10677369-7.10307916 4.72273117-7.25173702 9.20243687-.03486685 1.0509117-.01324087 2.1054068.02768978 3.1564847.02153123.5531851.09832358 1.1124216.22341315 1.6518429.56334129 2.4289505 1.86942709 4.375101 3.89234413 5.8255182 1.68116506 1.2053983 3.57037056 1.7924945 5.63471566 1.8147064.7450184.0080209 1.490179.0004271 2.2352685.0019696.701269.0014713 1.3976113-.0533465 2.0829155-.2048192 3.0551369-.6753268 5.3131447-2.4065725 6.7771735-5.1714066.5933761-1.1206798.9143548-2.3272172 1.0355835-3.5877417.0186651-.1941167.0214128-.3898234.0333509-.6202955-.6801879-.0627201-1.3402184-.1500014-2.002736-.1770781-.6343777-.0259613-1.2727349-.0124585-1.9066863.0265784-.5637202.0346942-1.1242191.1252741-1.6851444.1988153-.0784504.0102754-.1631778.0493598-.2249054.0997874-1.1094623.9063921-2.196138 1.8389117-3.1634089 2.90017-.3922048.4303553-.7675446.8726946-.9311014 1.4584856-.1593169.5705797-.6167074.8885941-1.2132812.8878585-.6420996-.0008068-1.2108652-.4783149-1.3021775-1.1151981-.091715-.6397308.2317272-1.2726035.8872335-1.428941.3278953-.0782162.6226055-.2342215.8636653-.4661411.5295877-.5094733 1.0519035-1.0268726 1.5647921-1.5531946.2441864-.2505957.4622464-.527034.6879335-.795309.1877409-.223163.1054296-.4497432-.1784321-.4954959-.1017582-.0163742-.2055534-.0216661-.3086854-.0280734-.7570039-.0470578-1.5135578-.1143817-2.271296-.1326068-.5950104-.0143571-1.1922474.0199574-1.7870683.0564789-.3691812.0226628-.7281061.1106323-1.0571857.2992198-.1267003.072592-.2663809.1364986-.4080986.1661857-.4928022.1031808-1.040605-.1744915-1.3184265-.6509317-.2950655-.5059611-.2143886-1.161022.2014318-1.5873905.3341486-.3425994.9339438-.5796685 1.5131078-.2323705.1744527.104581.3741554.1925979.5726975.2257971.4308378.0721174.8680236.1398447 1.3032671.1443773.778322.0081396 1.5574966-.023351 2.3356291-.0549602.4128122-.0167776.8251743-.0603708 1.2359258-.1075473.2652202-.0304702.3529795-.2704107.1800427-.4778403-.6042956-.7248527-1.2257878-1.4342567-1.9199272-2.0756961-.3870884-.3576683-.796537-.674164-1.3271196-.8019773-.1407938-.0338873-.2832458-.1260097-.389386-.2283837-.6132018-.5914152-.4890123-1.62450526.2392833-2.06838704.6939025-.42292761 1.6310913-.14257373 1.8543149.58863873.1655465.54226901.4620569.98859511.8281826 1.40119981 1.0032747 1.1307417 2.1484329 2.1081359 3.3135827 3.0632708.0547164.0448509.1285716.0831284.1974052.0912206.7037561.0826301 1.4068491.1997646 2.113045.2249902.7864702.0281209 1.5765171-.0171572 2.3638637-.0544855z"/></svg>

<svg xmlns="http://www.w3.org/2000/svg" width="32" height="32" viewBox="0 0 32 32">
  <path d="M16,32 C7.163444,32 0,24.836556 0,16 C0,7.163444 7.163444,0 16,0 C24.836556,0 32,7.163444 32,16 C32,24.836556 24.836556,32 16,32 Z M25.8202355,14.7150262 C26.196807,14.6971807 26.5707256,14.6239005 27,14.5687742 C26.9126907,13.9496178 26.8675675,13.3514631 26.7397777,12.7716285 C26.207016,10.3548993 24.9438268,8.39771406 22.9592586,6.92268817 C21.2988194,5.68855208 19.4217415,5.05926275 17.3564963,5.01097089 C16.493447,4.9907761 15.6295212,5.00401781 14.7660218,5.0072689 C13.9193873,5.01042508 13.0860411,5.12274224 12.2691808,5.34526453 C8.20631598,6.45203822 5.16610164,10.0679957 5.01744378,14.5477014 C4.98257693,15.5986131 5.00420291,16.6531082 5.04513356,17.7041861 C5.06666479,18.2573712 5.14345714,18.8166077 5.26854671,19.356029 C5.831888,21.7849795 7.1379738,23.73113 9.16089084,25.1815472 C10.8420559,26.3869455 12.7312614,26.9740417 14.7956065,26.9962536 C15.5406249,27.0042745 16.2857855,26.9966807 17.030875,26.9982232 C17.732144,26.9996945 18.4284863,26.9448767 19.1137905,26.793404 C22.1689274,26.1180772 24.4269352,24.3868315 25.890964,21.6219974 C26.4843401,20.5013176 26.8053188,19.2947802 26.9265475,18.0342557 C26.9452126,17.840139 26.9479603,17.6444323 26.9598984,17.4139602 C26.2797105,17.3512401 25.61968,17.2639588 24.9571624,17.2368821 C24.3227847,17.2109208 23.6844275,17.2244236 23.0504761,17.2634605 C22.4867559,17.2981547 21.926257,17.3887346 21.3653317,17.4622758 C21.2868813,17.4725512 21.2021539,17.5116356 21.1404263,17.5620632 C20.030964,18.4684553 18.9442883,19.4009749 17.9770174,20.4622332 C17.5848126,20.8925885 17.2094728,21.3349278 17.045916,21.9207188 C16.8865991,22.4912985 16.4292086,22.8093129 15.8326348,22.8085773 C15.1905352,22.8077705 14.6217696,22.3302624 14.5304573,21.6933792 C14.4387423,21.0536484 14.7621845,20.4207757 15.4176908,20.2644382 C15.7455861,20.186222 16.0402963,20.0302167 16.2813561,19.7982971 C16.8109438,19.2888238 17.3332596,18.7714245 17.8461482,18.2451025 C18.0903346,17.9945068 18.3083946,17.7180685 18.5340817,17.4497935 C18.7218226,17.2266305 18.6395113,17.0000503 18.3556496,16.9542976 C18.2538914,16.9379234 18.1500962,16.9326315 18.0469642,16.9262242 C17.2899603,16.8791664 16.5334064,16.8118425 15.7756682,16.7936174 C15.1806578,16.7792603 14.5834208,16.8135748 13.9885999,16.8500963 C13.6194187,16.8727591 13.2604938,16.9607286 12.9314142,17.1493161 C12.8047139,17.2219081 12.6650333,17.2858147 12.5233156,17.3155018 C12.0305134,17.4186826 11.4827106,17.1410103 11.2048891,16.6645701 C10.9098236,16.158609 10.9905005,15.5035481 11.4063209,15.0771796 C11.7404695,14.7345802 12.3402647,14.4975111 12.9194287,14.8448091 C13.0938814,14.9493901 13.2935841,15.037407 13.4921262,15.0706062 C13.922964,15.1427236 14.3601498,15.2104509 14.7953933,15.2149835 C15.5737153,15.2231231 16.3528899,15.1916325 17.1310224,15.1600233 C17.5438346,15.1432457 17.9561967,15.0996525 18.3669482,15.052476 C18.6321684,15.0220058 18.7199277,14.7820653 18.5469909,14.5746357 C17.9426953,13.849783 17.3212031,13.140379 16.6270637,12.4989396 C16.2399753,12.1412713 15.8305267,11.8247756 15.2999441,11.6969623 C15.1591503,11.663075 15.0166983,11.5709526 14.9105581,11.4685786 C14.2973563,10.8771634 14.4215458,9.84407334 15.1498414,9.40019156 C15.8437439,8.97726395 16.7809327,9.25761783 17.0041563,9.98883029 C17.1697028,10.5310993 17.4662132,10.9774254 17.8323389,11.3900301 C18.8356136,12.5207718 19.9807718,13.498166 21.1459216,14.4533009 C21.200638,14.4981518 21.2744932,14.5364293 21.3433268,14.5445215 C22.0470829,14.6271516 22.7501759,14.7442861 23.4563718,14.7695117 C24.242842,14.7976326 25.0328889,14.7523545 25.8202355,14.7150262 Z"/>
</svg>
